svg/fluentui-system-icons/ic_fluent_chat_arrow_back_16_filled.svg

<svg width="16" height="16" viewBox="0 0 16 16" fill="none" xmlns="http://www.w3.org/2000/svg">
<path d="M7.00001 1C3.68631 1 1.00001 3.68629 1.00001 7C1.00001 8.03957 1.2648 9.01862 1.73086 9.87202L1.01925 12.3626C0.968297 12.541 1.02025 12.7329 1.15422 12.8612C1.2882 12.9894 1.48217 13.033 1.65813 12.9743L3.99618 12.195C4.46403 12.466 4.97191 12.6757 5.50858 12.813C5.18219 12.1099 5 11.3262 5 10.5C5 7.46243 7.46243 5 10.5 5C11.3263 5 12.11 5.18221 12.8132 5.50865C12.1502 2.91642 9.79889 1 7.00001 1ZM10.5 15C12.9853 15 15 12.9853 15 10.5C15 8.01472 12.9853 6 10.5 6C8.01472 6 6 8.01472 6 10.5C6 12.9853 8.01472 15 10.5 15ZM9.60355 8.60355L8.70711 9.5H10.25C11.7688 9.5 13 10.7312 13 12.25V12.5C13 12.7761 12.7761 13 12.5 13C12.2239 13 12 12.7761 12 12.5V12.25C12 11.2835 11.2165 10.5 10.25 10.5H8.70711L9.60355 11.3964C9.79882 11.5917 9.79882 11.9083 9.60355 12.1036C9.40829 12.2988 9.09171 12.2988 8.89645 12.1036L7.14433 10.3514C7.09744 10.304 7.06198 10.2495 7.03794 10.1914C7.01349 10.1324 7 10.0678 7 10C7 9.93221 7.01349 9.86756 7.03794 9.80861C7.06234 9.74964 7.09851 9.69439 7.14645 9.64645L8.89645 7.89645C9.09171 7.70118 9.40829 7.70118 9.60355 7.89645C9.79882 8.09171 9.79882 8.40829 9.60355 8.60355Z" fill="#212121"/>
</svg>

<svg xmlns="http://www.w3.org/2000/svg" width="16" height="16"><path d="M7 1a6 6 0 0 0-5.27 8.872l-.71 2.49a.5.5 0 0 0 .638.612l2.338-.779c.468.271.976.48 1.513.618a5.5 5.5 0 0 1 7.305-7.304A6.002 6.002 0 0 0 7 1Zm3.5 14a4.5 4.5 0 1 0 0-9 4.5 4.5 0 0 0 0 9Zm-.896-6.396-.897.896h1.543A2.75 2.75 0 0 1 13 12.25v.25a.5.5 0 0 1-1 0v-.25a1.75 1.75 0 0 0-1.75-1.75H8.707l.897.896a.5.5 0 0 1-.708.708L7.144 10.35a.498.498 0 0 1 .002-.705l1.75-1.75a.5.5 0 1 1 .708.708Z"/></svg>
